X: 1763
T: Sevemez Kimse Seni
C: Suat Sayın
O: Turkey
F: http://compmusic.upf.edu/node/140
N: hicaz--fantezi--duyek--sevemez_kimse--suat_sayin
N: makam= hicaz
N: form= fantezi
N: usul= duyek = 8/4
M: 8/4
L: 1/16
K: C _7/8B ^f ^c 
Q: 1/4=108
%%MIDI tuningsystem comma53
za aa ag bg a8  | zg =fe dc Bc d8  | \
w:   |   | 
ze =fg a2 gf e2 de c4  | 
w:   | 
ze dc B2 AG B4 A4  | ze =fg a2 gf e2 de c4  | \
w:   |   | 
ze dc B2 AG B4 A4  | 
w:   | 
za aa a2 bg a8  | zg =fe dc Bc d4 zA BA  | 
w:  Se ve mez  kim se  se ni   |  be nim  sev di ğim  *  ka dar   SAZ  | 
za aa a2 bg a8  | zg =fe dc Bc d2 zA Bc d2  | 
w:  Se ve mez  kim se  se ni   |  be nim  sev di ğim  *  ka dar   SAZ  | 
ze =fg a2 ed c3e B4  | ze dc B2 AG A8  | \
w:  Sev gi lim  sen  ol ma san  SAZ  |  ya şa mak  ne ye  ya rar    | 
ze =fg a2 ed c3e B4  | 
w:  Sev gi lim  sen  ol ma san  SAZ  | 
ze dc B2 AG A8  | ze =fg a2 fe d3A Bc d2  | \
w:  ya şa mak  ne ye  ya rar    |  Yal nız  se ni  dü şü nür  SAZ  | 
zd e=f g2 ed c3G AB c2  | 
w:  yal nız  se ni  ya şa rım   SAZ  | 
zc de =f2 dc B3A GA B2  | ze dc B2 AG A8  | \
w:  Se ni  sev mek ten  de ğil  SAZ  |  kay bet mek ten  kor ka rım    | 
ze =fg a2 fe d3A Bc d2  | 
w:  Yal nız  se ni  dü şü nür  SAZ  | 
zd e=f g2 ed c3G AB c2  | zc de =f2 dc B3A GA B2  | 
w:  yal nız  se ni  ya şa rım   SAZ  |  Se ni  sev mek ten  de ğil  SAZ  | 
ze dc B2 AG A8  | za aa ag bg a8  | zg =fe dc Bc d8  | 
w:  kay bet mek ten  kor ka rım    |   |   | 
ze =fg a2 gf e2 de c4  | ze dc B2 AG B4 A4  | \
w:   |   | 
ze =fg a2 gf e2 de c4  | 
w:   | 
ze dc B2 AG B4 A4  | za aa a2 bg a8  | \
w:   |  Se ve mez  kim se  se ni   | 
zg =fe dc Bc d4 zA BA  | 
w:  be nim  sev di ğim  *  ka dar   SAZ  | 
za aa a2 bg a8  | zg =fe dc Bc d2 zA Bc d2  | 
w:  Se ve mez  kim se  se ni   |  be nim  sev di ğim  *  ka dar   SAZ  | 
ze =fg a2 ed c3e B4  | ze dc B2 AG A8  | \
w:  Sev gi lim  sen  ol ma san  SAZ  |  ya şa mak  ne ye  ya rar    | 
ze =fg a2 ed c3e B4  | 
w:  Sev gi lim  sen  ol ma san  SAZ  | 
ze dc B2 AG A8  | ze =fg a2 fe d3A Bc d2  | \
w:  ya şa mak  ne ye  ya rar    |  Yal nız  se ni  dü şü nür  SAZ  | 
zd e=f g2 ed c3G AB c2  | 
w:  yal nız  se ni  ya şa rım   SAZ  | 
zc de =f2 dc B3A GA B2  | ze dc B2 AG A8  | \
w:  Se ni  sev mek ten  de ğil  SAZ  |  kay bet mek ten  kor ka rım    | 
ze =fg a2 fe d3A Bc d2  | 
w:  Yal nız  se ni  dü şü nür  SAZ  | 
zd e=f g2 ed c3G AB c2  | zc de =f2 dc B3A GA B2  | 
w:  yal nız  se ni  ya şa rım   SAZ  |  Se ni  sev mek ten  de ğil  SAZ  | 
ze dc B2 AG A8  | |


